X: 20142
M: C
L: 1/8
K: C
c2c>c c2e2 | d2d>d d2g2 |\
d2d>d d2f2 | e2e>e e2g2 |\
(agfe) (agfe) | d2d>d d2 :|
|: z2 |\
d2d>d f2d2 | e2e>e g2e2 |\
d3e gfed | e3g agfe |\
a3b c'2a2 | g3c' bagf |\
e>gc>e d>gB>d | c2c>c c2 :|


